X: 20
T:Queen of the Fair, The
M:6/8
C:John McFadden
R:jig
K:D
~F3 DAA|DFA dAF|~G3 FGA|BAG FGE| ~F3 DAA|DFA dAF|~G3 EAG|1 FDD D2E:|2 FDD D3||
|fdf ece|dAG FEF|DFA dAF|GFG E2g| fdf ece|dAG FED|EFG EAG|1 FDD D2g:|2 FDD D3||
|Add fdd|add fdd|Ace ~g3|~f3 ecA| Add fdd|add fdd|EFG EAG|FDD D3|
Add fdd|add fdd|Ace ~g3|~f3 efg|~a3 geg|fdf ecA|EFG EAG|FDD D2E||

